X:23
T:Darby Gallagher's
T:Hiuda\'i Gallagher's March
T:Murphy's Delight
R:jig
D:Paddy Glackin: In Full Spate.
D:Altan: The Red Crow
Z:id:hn-jig-23
M:6/8
K:Amix
cBA ecA|fed cBA|def gfg|~B3 Bed|cBA ecA|fed cBA|c2e dBG|1 ABA Aed:|2 ABA Afg||
|:agf gfe|fed cBA|def gfg|~B3 Bfg|agf gfe|fed cBA|c2e dBG|1 ABA Afg:|2 ABA Aed||
<end>
<start>
